!!!!SEGMENT: pl-wtm--r-33-n_noskowski-zygmunt-krakowiak-ludowy.krn
!!!id: 18xx:2276
!!!COM: Noskowski, Zygmunt
!!!OTL: Krakowiak ludowy
!!!PDT:
!!!SMS-siglum: PL-Wtm
!!!SMS-shelfmark: R 33/N
!!!SMS-variant:
!!!SMS-altvar:
!!!NIFC-rismID: 1001143200
!!!OMD: Andantino
!!!system-decoration: {(s1,s2)}[(s3)]{(s4,s5)}[(s6)][(s7)]{(s8,s9)}
**kern	**dynam	**kern	**dynam	**kern	**text	**kern	**dynam	**kern	**dynam	**kern	**dynam	**kern	**dynam	**kern	**dynam	**kern	**dynam
*part9	*part9	*part8	*part8	*part7	*part7	*part6	*part6	*part5	*part5	*part4	*part4	*part3	*part3	*part2	*part2	*part1	*part1
*staff9	*	*staff8	*	*staff7	*staff7	*staff6	*	*staff5	*	*staff4	*	*staff3	*	*staff2	*	*staff1	*
*I"Baſso	*	*I"Cello	*	*I"[Voce]	*	*I"Viola	*	*I"Violino 2do	*	*I"Violino Io	*	*I"2 Clarinetti in B	*	*	*	*I"2 Flauti	*
*I'C-b.	*	*I'Vc.	*	*I'[V.]	*	*I'Va	*	*I'Vn II	*	*I'Vn I	*	*I'Cl. in B	*	*I'Fl. 2	*	*I'Fl.1	*
*clefF4	*	*clefF4	*	*clefG2	*	*clefC3	*	*clefG2	*	*clefG2	*	*clefG2	*	*clefG2	*	*clefG2	*
*ITrd0c0	*	*	*	*	*	*	*	*	*	*	*	*ITrd1c2	*	*	*	*	*
*k[b-e-a-d-g-]	*	*k[b-e-a-d-g-]	*	*k[b-e-a-d-g-]	*	*k[b-e-a-d-g-]	*	*k[b-e-a-d-g-]	*	*k[b-e-a-d-g-]	*	*k[b-e-a-d-g-]	*	*k[b-e-a-d-g-]	*	*k[b-e-a-d-g-]	*
*M2/4	*	*M2/4	*	*M2/4	*	*M2/4	*	*M2/4	*	*M2/4	*	*M2/4	*	*M2/4	*	*M2/4	*
*>[A,A]	*	*>[A,A]	*	*>[A,A]	*	*>[A,A]	*	*>[A,A]	*	*>[A,A]	*	*>[A,A]	*	*>[A,A]	*	*>[A,A]	*
=1	=1	=1	=1	=1	=1	=1	=1	=1	=1	=1	=1	=1	=1	=1	=1	=1	=1
*	*	*	*	*	*	*	*	*	*	*	*	*^	*	*	*	*	*
*>A	*	*>A	*	*>A	*	*>A	*	*>A	*	*>A	*	*>A	*>A	*	*>A	*	*>A	*
!!LO:TX:a:t=P:problem:all\right:global
!	!LO:DY:b:rj	!	!LO:DY:b:rj	!	!	!	!	!	!	!	!	!	!	!LO:DY:b:rj	!	!	!	!
2BB-/	p	2BB-/	p	2r	.	8r	.	8r	.	8r	.	2r	2F\	p	8r	.	8r	.
!	!	!	!	!	!	!	!LO:DY:b:rj	!	!LO:DY:b:rj	!	!LO:DY:b:rj	!	!	!	!	!LO:DY:b:rj	!	!LO:DY:b:rj
.	.	.	.	.	.	4B- 4F/	p	4d-/	p	4f 4B-/	p	.	.	.	(>16dd-\LL	p	(>16ff\LL	p
.	.	.	.	.	.	.	.	.	.	.	.	.	.	.	16b-\JJ	.	16gg-\JJ	.
.	.	.	.	.	.	.	.	.	.	.	.	.	.	.	16dd-\LL	.	16ff\LL	.
.	.	.	.	.	.	.	.	.	.	.	.	.	.	.	16b-\J	.	16aa-\J	.
.	.	.	.	.	.	8B- 8F/	.	8d-/	.	8f 8B-/	.	.	.	.	8dd-\J)	.	8ff\J)	.
=2	=2	=2	=2	=2	=2	=2	=2	=2	=2	=2	=2	=2	=2	=2	=2	=2	=2	=2
*rep	*	*rep	*	*	*	*rep	*	*rep	*	*rep	*	*rep	*rep	*	*rep	*	*rep	*
2BB-/	.	2BB-/	.	2r	.	8r	.	8r	.	8r	.	2r	2F\	.	8r	.	8r	.
.	.	.	.	.	.	4B- 4F/	.	4d-/	.	4f 4B-/	.	.	.	.	(>16dd-\LL	.	(>16ff\LL	.
.	.	.	.	.	.	.	.	.	.	.	.	.	.	.	16b-\JJ	.	16gg-\JJ	.
.	.	.	.	.	.	.	.	.	.	.	.	.	.	.	16dd-\LL	.	16ff\LL	.
.	.	.	.	.	.	.	.	.	.	.	.	.	.	.	16b-\J	.	16aa-\J	.
.	.	.	.	.	.	8B- 8F/	.	8d-/	.	8f 8B-/	.	.	.	.	8dd-\J)	.	8ff\J)	.
*Xrep	*	*Xrep	*	*	*	*Xrep	*	*Xrep	*	*Xrep	*	*Xrep	*Xrep	*	*Xrep	*	*Xrep	*
=3	=3	=3	=3	=3	=3	=3	=3	=3	=3	=3	=3	=3	=3	=3	=3	=3	=3	=3
*rep	*	*rep	*	*	*	*rep	*	*rep	*	*rep	*	*	*	*	*	*	*	*
!	!	!	!	!	!	!	!	!	!	!	!	!	!	!LO:DY:a:rj	!	!	!	!
2BB-/	.	2BB-/	.	8.dd-\	La-	8r	.	8r	.	8r	.	(>8.dd-/L	2F\	p	8r	.	8r	.
.	.	.	.	.	.	4B- 4F/	.	4d-/	.	4f 4B-/	.	.	.	.	(>16b-\LL	.	(>16ff\LL	.
.	.	.	.	16cc\	-ta	.	.	.	.	.	.	16cc/Jk	.	.	16cc\JJ	.	16aa-\JJ	.
.	.	.	.	8b-\	pta-	.	.	.	.	.	.	8b-/L	.	.	8dd-\)	.	8ff\)	.
.	.	.	.	8dd-\	-szek	8B- 8F/	.	8d-/	.	8f 8B-/	.	8dd-/J	.	.	8r	.	8r	.
*Xrep	*	*Xrep	*	*	*	*Xrep	*	*Xrep	*	*Xrep	*	*	*	*	*	*	*	*
=4	=4	=4	=4	=4	=4	=4	=4	=4	=4	=4	=4	=4	=4	=4	=4	=4	=4	=4
*rep	*	*rep	*	*	*	*	*	*	*	*	*	*	*rep	*	*	*	*	*
2BB-/	.	2BB-/	.	4cc\	la-	8r	.	8r	.	8r	.	4cc/	2F\	.	8r	.	8r	.
.	.	.	.	.	.	4An 4F/	.	4e-/	.	4f 4An/	.	.	.	.	(>16an\LL	.	(>16ff\LL	.
.	.	.	.	.	.	.	.	.	.	.	.	.	.	.	16ee-\JJ	.	16aan\JJ	.
.	.	.	.	4an/	-ta	.	.	.	.	.	.	4a/)	.	.	8cc\)	.	8ff\)	.
.	.	.	.	.	.	8A 8F/	.	8e-/	.	8f 8A/	.	.	.	.	8r	.	8r	.
*Xrep	*	*Xrep	*	*	*	*	*	*	*	*	*	*	*Xrep	*	*	*	*	*
=5	=5	=5	=5	=5	=5	=5	=5	=5	=5	=5	=5	=5	=5	=5	=5	=5	=5	=5
*rep	*	*rep	*	*	*	*rep	*	*rep	*	*rep	*	*	*rep	*	*rep	*	*rep	*
2BB-/	.	2BB-/	.	8f/	Sam	8r	.	8r	.	8r	.	(>8f/	2F\	.	8r	.	8r	.
.	.	.	.	8an/	nie	4An 4F/	.	4e-/	.	8f 8An/	.	4a/)	.	.	(>16an\LL	.	(>16ff\LL	.
.	.	.	.	.	.	.	.	.	.	.	.	.	.	.	16ee-\JJ	.	16aan\JJ	.
.	.	.	.	8a/	wie	.	.	.	.	4f 4A/	.	.	.	.	8cc\)	.	8ff\)	.
.	.	.	.	8a/	gdzie	8A 8F/	.	8e-/	.	.	.	(>8a/	.	.	8r	.	8r	.
*Xrep	*	*Xrep	*	*	*	*Xrep	*	*Xrep	*	*Xrep	*	*	*Xrep	*	*Xrep	*	*Xrep	*
=6	=6	=6	=6	=6	=6	=6	=6	=6	=6	=6	=6	=6	=6	=6	=6	=6	=6	=6
*rep	*	*rep	*	*	*	*	*	*	*	*	*	*	*rep	*	*	*	*	*
2BB-/	.	2BB-/	.	(>8b-\	pad-	8r	.	8r	.	8r	.	2b-/)	2F\	.	8r	.	8r	.
.	.	.	.	4ff\)	.	4B- 4F/	.	4d-/	.	4f 4B-/	.	.	.	.	(>16b-\LL	.	(>16ff\LL	.
.	.	.	.	.	.	.	.	.	.	.	.	.	.	.	16dd-\JJ	.	16bb-\JJ	.
.	.	.	.	.	.	.	.	.	.	.	.	.	.	.	8b-\)	.	8ff\)	.
.	.	.	.	8ee-\	-nie	8B- 8F/	.	8d-/	.	8f 8B-/	.	.	.	.	8r	.	8r	.
*Xrep	*	*Xrep	*	*	*	*	*	*	*	*	*	*	*Xrep	*	*	*	*	*
!!LO:LB:g=original
=7	=7	=7	=7	=7	=7	=7	=7	=7	=7	=7	=7	=7	=7	=7	=7	=7	=7	=7
*	*	*	*	*	*	*rep	*	*rep	*	*rep	*	*	*	*	*	*	*rep	*
2BB-/	.	2BB-/	.	(>16dd-\LL	Kie-	8r	.	8r	.	8r	.	(<16dd-/LL	2F\	.	8r	.	8r	.
.	.	.	.	16ee-\JJ)	.	.	.	.	.	.	.	16ee-/	.	.	.	.	.	.
.	.	.	.	(>16dd-\LL	-dy	4B- 4F/	.	4d-/	.	4f 4B-/	.	16dd-/	.	.	(>16b-\LL	.	(>16ff\LL	.
.	.	.	.	16cc\JJ)	.	.	.	.	.	.	.	16cc/JJ)	.	.	16cc\JJ	.	16bb-\JJ	.
.	.	.	.	(>16b-\LL	się	.	.	.	.	.	.	8b-/	.	.	8dd-\)	.	8ff\)	.
.	.	.	.	16an\JJ)	.	.	.	.	.	.	.	.	.	.	.	.	.	.
.	.	.	.	(>16b-\LL	kto	8B- 8F/	.	8d-/	.	8f 8B-/	.	8r	.	.	8r	.	8r	.
.	.	.	.	16dd-\JJ)	.	.	.	.	.	.	.	.	.	.	.	.	.	.
*	*	*	*	*	*	*Xrep	*	*Xrep	*	*Xrep	*	*	*	*	*	*	*Xrep	*
=8	=8	=8	=8	=8	=8	=8	=8	=8	=8	=8	=8	=8	=8	=8	=8	=8	=8	=8
*rep	*	*rep	*	*	*	*	*	*	*	*	*	*	*rep	*	*	*	*	*
2BB-/	.	2BB-/	.	(>8dd-\	ko-	8r	.	8r	.	8r	.	(>8dd-/	2F\	.	8r	.	8r	.
.	.	.	.	4cc\)	.	4An 4F/	.	4e-/	.	4f 4An/	.	4cc/	.	.	(>16an\LL	.	(>16ff\LL	.
.	.	.	.	.	.	.	.	.	.	.	.	.	.	.	16ee-\JJ	.	16aan\JJ	.
.	.	.	.	.	.	.	.	.	.	.	.	.	.	.	8cc\)	.	8ff\)	.
.	.	.	.	8an/	-cha	8A 8F/	.	8e-/	.	8f 8A/	.	8a/	.	.	8r	.	8r	.
*Xrep	*	*Xrep	*	*	*	*	*	*	*	*	*	*	*Xrep	*	*	*	*	*
=9	=9	=9	=9	=9	=9	=9	=9	=9	=9	=9	=9	=9	=9	=9	=9	=9	=9	=9
*rep	*	*rep	*	*	*	*rep	*	*rep	*	*rep	*	*	*	*	*rep	*	*rep	*
2BB-/	.	2BB-/	.	8f/	Wza-	8r	.	8r	.	8r	.	2f/)	2e-\	.	8r	.	8r	.
.	.	.	.	8ff\	-jem-	4An 4F/	.	4e-/	.	4f 4An/	.	.	.	.	(>16an\LL	.	(>16ff\LL	.
.	.	.	.	.	.	.	.	.	.	.	.	.	.	.	16ee-\JJ	.	16aan\JJ	.
.	.	.	.	8.ff\	-no-	.	.	.	.	.	.	.	.	.	8cc\)	.	8ff\)	.
.	.	.	.	.	.	8A 8F/	.	8e-/	.	8f 8A/	.	.	.	.	8r	.	8r	.
.	.	.	.	16an/	-ści	.	.	.	.	.	.	.	.	.	.	.	.	.
*Xrep	*	*Xrep	*	*	*	*Xrep	*	*Xrep	*	*Xrep	*	*	*	*	*Xrep	*	*Xrep	*
*	*	*	*	*	*	*	*	*	*	*	*	*v	*v	*	*	*	*	*
=10	=10	=10	=10	=10	=10	=10	=10	=10	=10	=10	=10	=10	=10	=10	=10	=10	=10
4BB-/	.	4BB-/	.	(>16cc\LL	pra-	8r	.	8r	.	8r	.	8r	.	8r	.	8r	.
.	.	.	.	16b-\JJ)	.	.	.	.	.	.	.	.	.	.	.	.	.
.	.	.	.	4b-\	-gnie	4B- 4F/	.	(<4d-/	.	(>4f/	.	(>4b- &(<4f/	.	(>4dd-\	.	(>4ff\	.
4r	.	4r	.	.	.	.	.	.	.	.	.	.	.	.	.	.	.
!	!	!	!	!	!	!	!	!	!	!	!	!LO:S:s=1:note:problem:note-level slur	!	!	!	!	!
!	!	!	!	!	!	!	!	!	!	!	!	!LO:S:s=2:note:problem:note-level slur	!	!	!	!	!
.	.	.	.	8r	.	8B-/	.	8f/)	.	8b-\)	.	8dd-) 8b-\&)	.	8ff\)	.	8bb-\)	.
=11	=11	=11	=11	=11	=11	=11	=11	=11	=11	=11	=11	=11	=11	=11	=11	=11	=11
!	!	!	!	!	!	!	!	!	!	!	!	!	!	!	!	!	!LO:DY:b:rj
4G-\	.	4G-\	.	8.dd-\	U-	8r	.	8r	.	(>8.dd-\L	.	8r	.	8r	.	(>8.dddn\L	p
.	.	.	.	.	.	4d-\	.	4g- 4B-/	.	.	.	[>4.g- (<4.d-/	.	[<4.b-/	.	.	.
.	.	.	.	16cc\	-pa-	.	.	.	.	16cc\Jk	.	.	.	.	.	16ccc\Jk	.
4r	.	4r	.	8b-\	-da	.	.	.	.	8b-\L	.	.	.	.	.	8bb-\L	.
.	.	.	.	8dd-\	pta-	8g- 8d-\	.	8b- 8g-\	.	8dd-\J)	.	.	.	.	.	8ddd\J	.
=12	=12	=12	=12	=12	=12	=12	=12	=12	=12	=12	=12	=12	=12	=12	=12	=12	=12
(>4E-\	.	(>4E-\	.	(>4cc\	-szy-	8r	.	8r	.	4cc\	.	8g-] 8c/)	.	8b-/]	.	4ccc\	.
.	.	.	.	.	.	8c\	.	8b- 8g-/	.	.	.	8r	.	8r	.	.	.
4F\)	.	4F\)	.	4an/)	-na	8r	.	8r	.	4an/	.	8c 8A/	.	8f/	.	4aan\)	.
.	.	.	.	.	.	8c\	.	8an 8f/	.	.	.	8r	.	8r	.	.	.
!!LO:PB:g=original
=13	=13	=13	=13	=13	=13	=13	=13	=13	=13	=13	=13	=13	=13	=13	=13	=13	=13
*	*	*	*	*	*	*	*	*	*	*	*	*^	*	*	*	*	*
(<4D-/	.	(<4D-/	.	8f/	u-	8r	.	8r	.	8r	.	(<8f/	4r	.	(>4ff\	.	(>8ff\	.
.	.	.	.	8an/	-pa-	8c\	.	8f/	.	8an/	.	4a/)	.	.	.	.	4aan\)	.
4C/)	.	4C/)	.	8a/	-łem	8r	.	8r	.	8r	.	.	[<4f\	.	4ee-\	.	.	.
.	.	.	.	8a/	zmę-	8e-\	.	8f/	.	8a/	.	(>8a/	.	.	.	.	(>8aa\	.
=14	=14	=14	=14	=14	=14	=14	=14	=14	=14	=14	=14	=14	=14	=14	=14	=14	=14	=14
(<4BB-/	.	(<4BB-/	.	(>8b-\	-czo-	8r	.	8r	.	8r	.	8b-/)	8f\]	.	8dd-\)	.	8bb-\	.
.	.	.	.	4ff\)	.	8d-\	.	8f/	.	8b-\	.	8r	8r	.	8r	.	4fff\	.
4AA-X/)	.	4AA-X/)	.	.	.	8r	.	8r	.	8r	.	(>4g- &(<4c/	4ryy	.	(<4b-/	.	.	.
.	.	.	.	8ee-\	-na	8c\	.	8g-/	.	8b-\	.	.	.	.	.	.	8eee-\	.
*	*	*	*	*	*	*	*	*	*	*	*	*v	*v	*	*	*	*	*
=15	=15	=15	=15	=15	=15	=15	=15	=15	=15	=15	=15	=15	=15	=15	=15	=15	=15
!	!	!	!	!	!	!	!	!	!	!	!	!LO:S:s=1:note:problem:note-level slur	!	!	!	!	!
!	!	!	!	!	!	!	!	!	!	!	!	!LO:S:s=2:note:problem:note-level slur	!	!	!	!	!
4D-\	.	4D-\	.	16dd-\LL	Nie	8r	.	8r	.	8r	.	8f) 8d-/&)	.	8a-/)	.	8.ddd-\L	.
.	.	.	.	16ee-\JJ	.	.	.	.	.	.	.	.	.	.	.	.	.
.	.	.	.	16dd-\LL	wy-	8d-\	.	8f/	.	8a-/	.	8r	.	8r	.	.	.
.	.	.	.	16cc\JJ	.	.	.	.	.	.	.	.	.	.	.	16ccc\Jk	.
(<4GG-/	.	(<4GG-/	.	16b-/LL	-trzy-	8r	.	8r	.	8r	.	4r	.	4r	.	4bb-\)	.
.	.	.	.	16an/JJ	.	.	.	.	.	.	.	.	.	.	.	.	.
.	.	.	.	(>16b-\LL	-mam	8c\	.	8g-/	.	8b-\	.	.	.	.	.	.	.
.	.	.	.	16dd-\JJ)	.	.	.	.	.	.	.	.	.	.	.	.	.
=16	=16	=16	=16	=16	=16	=16	=16	=16	=16	=16	=16	=16	=16	=16	=16	=16	=16
*	*	*	*	*	*	*	*	*	*	*	*	*^	*	*	*	*	*
4C/)	.	4C/)	.	(>8dd-\	bę-	8r	.	8r	.	8r	.	(<8dd-/	2re	.	2r	.	(>8ddd-\	.
.	.	.	.	4cc\)	.	4c\	.	(<4en/	.	(<4b-/	.	4cc/	.	.	.	.	4ccc\	.
4FF/	.	4FF/	.	.	.	.	.	.	.	.	.	.	.	.	.	.	.	.
.	.	.	.	8an/	-dąc	8c\	.	8e-X/)	.	8an/)	.	8a/	.	.	.	.	8aan\	.
=17	=17	=17	=17	=17	=17	=17	=17	=17	=17	=17	=17	=17	=17	=17	=17	=17	=17	=17
4D-\	.	4D-\	.	8f/	Z to-	8r	.	8r	.	8r	.	8f/)	4r	.	4r	.	4ff\	.
.	.	.	.	8ff\	-bą	4An/	.	4f/	.	4an/	.	8r	.	.	.	.	.	.
4C/	.	4C/	.	8.ff\	roz-	.	.	.	.	.	.	(>4ee- &(<4a\	4ryy	.	(>4ff\	.	4aan\)	.
.	.	.	.	.	.	8e-\	.	8f/	.	8a/	.	.	.	.	.	.	.	.
.	.	.	.	16an/	-łą-	.	.	.	.	.	.	.	.	.	.	.	.	.
!!LO:LB:g=original
=18	=18	=18	=18	=18	=18	=18	=18	=18	=18	=18	=18	=18	=18	=18	=18	=18	=18	=18
4BB-/	.	4BB-/	.	(>16cc\LL	-czo-	8r	.	8r	.	8r	.	8ee-/L)	8f\&)	.	8ff\)	.	(>8ccc\L	.
.	.	.	.	16b-\JJ)	.	.	.	.	.	.	.	.	.	.	.	.	.	.
.	.	.	.	4b-\	-na.	4d-\	.	4f/	.	4b-\	.	[>8dd-/J	8r	.	8r	.	[>8bb-\J)	.
4r	.	4r	.	.	.	.	.	.	.	.	.	16dd-/LL]	4r	.	4r	.	16bb-\LL]	.
!	!	!	!	!	!	!	!	!	!	!	!	!	!	!LO:DY:a:rj	!	!	!	!
.	.	.	.	.	.	.	.	.	.	.	.	(>16a/	.	f	.	.	(>16aan\	<
.	.	.	.	8r	.	8r	.	8r	.	8r	.	16b-/	.	.	.	.	16bb-\	.
.	.	.	.	.	.	.	.	.	.	.	.	16cc/JJ	.	.	.	.	16ccc\JJ	[[
=19	=19	=19	=19	=19	=19	=19	=19	=19	=19	=19	=19	=19	=19	=19	=19	=19	=19	=19
!	!	!LO:TX:a:Bi:t=pizz	!	!	!	!	!	!	!	!	!	!	!	!	!	!	!	!
!	!LO:DY:b:rj	!	!LO:DY:b:rj	!	!	!	!	!	!	!	!LO:DY:b:rj	!	!	!LO:DY:b:rj	!	!LO:DY:b:rj	!	!LO:DY:b:rj
8G-\	f	8G-\L	f	2ryy	.	8r	.	8r	.	8ee-/L	f	4ee-/	(<16b-\LL	f	(>16bb-\LL	f	4eee-\	f
.	.	.	.	.	.	.	.	.	.	.	.	.	16cc\	.	16ccc\	.	.	.
!	!	!	!	!	!	!	!LO:DY:b:rj	!	!LO:DY:b:rj	!	!	!	!	!	!	!	!	!
8r	.	8B-\	.	.	.	8B-/	f	8c/	f	8e-/J	.	.	16b-\	.	16bb-\	.	.	.
.	.	.	.	.	.	.	.	.	.	.	.	.	16cc\JJ	.	16ccc\JJ	.	.	.
8F\	.	8F\	.	.	.	8r	.	8r	.	8ff/L	.	16dd/LL	8b-\)	.	8bb-\)	.	16dddn\LL	.
.	.	.	.	.	.	.	.	.	.	.	.	16ff/	.	.	.	.	16fff\	.
8r	.	8B-\J	.	.	.	8B-/	.	8dn/	.	8f/J	.	16dd/	8r	.	8r	.	16ddd\	.
.	.	.	.	.	.	.	.	.	.	.	.	16b-/JJ	.	.	.	.	16bb-\JJ	.
=20	=20	=20	=20	=20	=20	=20	=20	=20	=20	=20	=20	=20	=20	=20	=20	=20	=20	=20
*	*	*	*	*	*	*rep	*	*	*	*	*	*	*	*	*	*	*	*
8E-\	.	8E-\L	.	2ryy	.	8r	.	8r	.	8gg-\L	.	8cc/L)	(<16g-\LL	.	(>16gg-\LL	.	8ccc\L)	.
.	.	.	.	.	.	.	.	.	.	.	.	.	16a-\	.	16aa-\	.	.	.
*	*	*	*	*	*	*	*	*rep	*	*	*	*	*	*	*	*	*	*
!	!	!	!	!	!	!	!	!	!	!	!	!LO:TUP:a	!	!	!	!	!LO:TUP:a:problem:klamra łukowa	!
8r	.	8B-\	.	.	.	8B-/	.	8c/	.	8g-\J	.	(>24cc/L	16g-\	.	16gg-\	.	24ccc\L	.
.	.	.	.	.	.	.	.	.	.	.	.	24b-/	.	.	.	.	24bb-\	.
.	.	.	.	.	.	.	.	.	.	.	.	.	16a-\JJ	.	16aa-\JJ	.	.	.
.	.	.	.	.	.	.	.	.	.	.	.	24cc/JJ	.	.	.	.	24ccc\JJ	.
8F\	.	8F\	.	.	.	8r	.	8r	.	8ff\L	.	8dd/L)	8b-\)	.	8bb-\)	.	8dddn\L	.
8r	.	8B-\J	.	.	.	8B-/	.	8dn/	.	8f\J	.	8b-'>/J	8r	.	8r	.	8bb-'>\J	.
*	*	*	*	*	*	*Xrep	*	*Xrep	*	*	*	*	*	*	*	*	*	*
=21	=21	=21	=21	=21	=21	=21	=21	=21	=21	=21	=21	=21	=21	=21	=21	=21	=21	=21
8C/	.	8C/	.	2ryy	.	8r	.	8r	.	8ff/L	.	(>8f/L	16e-\LL	.	(>16ee-\LL	.	(>8ff\L	.
.	.	.	.	.	.	.	.	.	.	.	.	.	16f\	.	16ff\	.	.	.
8r	.	8r	.	.	.	8An/	.	8e-/	.	8f/J	.	8ee-/J	16g\	.	16ggn\	.	8eee-\J	.
.	.	.	.	.	.	.	.	.	.	.	.	.	16a\JJ	.	16aan\JJ	.	.	.
!	!	!LO:TX:a:Bi:t=arco	!	!	!	!	!	!	!	!	!	!	!	!	!	!	!	!
8BB-/	.	8D-\L	.	.	.	8r	.	8r	.	8ff/L	.	16dd/LL	8b-\L	.	8bb-\L)	.	16dddn\LL	.
.	.	.	.	.	.	.	.	.	.	.	.	16ff/	.	.	.	.	16fff\	.
8r	.	8F\J	.	.	.	8B-/	.	8dn/	.	8f/J	.	16dd/	8f\J	.	8ff'>\J	.	16ddd\	.
.	.	.	.	.	.	.	.	.	.	.	.	16b-/JJ	.	.	.	.	16bb-\JJ	.
=22	=22	=22	=22	=22	=22	=22	=22	=22	=22	=22	=22	=22	=22	=22	=22	=22	=22	=22
8F\L	.	8F\L	.	2ryy	.	8r	.	8r	.	8r	.	8cc/L)	8a\L	.	8aan^^>\L	.	8ccc\L)	.
!	!	!	!	!	!	!	!	!	!	!	!	!LO:TUP:a	!	!	!	!	!LO:TUP:b:problem:klamra łukowa	!
8F^^>\J	.	8F^^>\J	.	.	.	8anL 8c 8F\	.	8ee-L 8f^^>\	.	8aanL 8cc 8f^^>\	.	(>24cc/L	8f\J	.	8aa^^>\J	.	24ccc\L	.
.	.	.	.	.	.	.	.	.	.	.	.	24dd/	.	.	.	.	24dddn\	.
.	.	.	.	.	.	.	.	.	.	.	.	24cc/JJ	.	.	.	.	24ccc\JJ	.
8BB-^^>/	.	8F 8BB-^^>\	.	.	.	8b-J 8dn 8F\	.	8ddnJ 8f^^>\	.	8bb-J 8ddn 8f^^>\	.	8dd\)	8b-/	.	8ff\	.	8bb-\	.
8r	.	8r	.	.	.	8r	.	8r	.	8r	.	8r	8r	.	8r	.	8r	.
*	*	*	*	*	*	*	*	*	*	*	*	*v	*v	*	*	*	*	*
==:|!	==:|!	==:|!	==:|!	==:|!	==:|!	==:|!	==:|!	==:|!	==:|!	==:|!	==:|!	==:|!	==:|!	==:|!	==:|!	==:|!	==:|!
*-	*-	*-	*-	*-	*-	*-	*-	*-	*-	*-	*-	*-	*-	*-	*-	*-	*-
!!title: @{OTL};
!!!RDF**kern: > = above
!!!RDF**kern: < = below
!!!RDF**kern: | = vertical stroke
!!!RDF**kern: N = linked
!!!RDF**kern: i = editorial accidental
!!!ENC: Berenika Jozajtis
!!!END: 2021-05-31
!!!EED: Wojciech Jakubiak-Danek
!!!EST: 2021-06-08
!!!URL-scan: http://repozytorium.nifc.pl/skany/pl-wtm-nut--r33n
!!!ONB-nifc:
